Adwaita++-Dark/actions/16/map.svg

<svg fill="none" height="16" viewBox="0 0 16 16" width="16" xmlns="http://www.w3.org/2000/svg" xmlns:xlink="http://www.w3.org/1999/xlink">
  <clipPath id="clip0">
    <path d="m0 0h16v16h-16z"/>
  </clipPath>
  <g clip-path="url(#clip0)" fill="#e6ddff">
    <path clip-rule="evenodd" d="m8 13c2.7614 0 5-2.2386 5-5 0-2.76142-2.2386-5-5-5-2.76142 0-5 2.23858-5 5 0 2.7614 2.23858 5 5 5zm0 2c3.866 0 7-3.134 7-7 0-3.86599-3.134-7-7-7-3.86599 0-7 3.13401-7 7 0 3.866 3.13401 7 7 7z" fill-rule="evenodd"/>
    <path d="m15.0312 1-8.99995 5 1.28125 1.28125c.18096-.18096.44261-.28125.71875-.28125.55228 0 1 .44772 1 1 0 .26721-.14176.50811-.3125.6875-.00571.006.00585.0254 0 .03125l1.31245 1.28125z"/>
    <path d="m6.03125 6-5 9 8.99995-5-1.31245-1.28125c-.18096.18096-.41136.28125-.6875.28125-.55228 0-1-.44772-1-1 0-.27614.10029-.53779.28125-.71875z" opacity=".5"/>
  </g>
</svg>

<svg xmlns="http://www.w3.org/2000/svg" fill="none" width="16" height="16" viewBox="0 0 16 16">
 <g clip-path="url(#clip0)">
  <path fill="#E6DDFF" fill-rule="evenodd" d="M8 13C10.7614 13 13 10.7614 13 8C13 5.23858 10.7614 3 8 3C5.23858 3 3 5.23858 3 8C3 10.7614 5.23858 13 8 13ZM8 15C11.866 15 15 11.866 15 8C15 4.13401 11.866 1 8 1C4.13401 1 1 4.13401 1 8C1 11.866 4.13401 15 8 15Z" clip-rule="evenodd"/>
  <path fill="#E6DDFF" d="M15.0312 1L6.03125 6L7.3125 7.28125C7.49346 7.10029 7.75511 7 8.03125 7C8.58353 7 9.03125 7.44772 9.03125 8C9.03125 8.26721 8.88949 8.50811 8.71875 8.6875C8.71304 8.6935 8.7246 8.7129 8.71875 8.71875L10.0312 10L15.0312 1Z"/>
  <path fill="#E6DDFF" opacity=".5" d="M6.03125 6L1.03125 15L10.0312 10L8.71875 8.71875C8.53779 8.89971 8.30739 9 8.03125 9C7.47897 9 7.03125 8.55228 7.03125 8C7.03125 7.72386 7.13154 7.46221 7.3125 7.28125L6.03125 6Z"/>
 </g>
 <defs>
  <clipPath id="clip0">
   <rect fill="#fff" width="16" height="16"/>
  </clipPath>
 </defs>
</svg>
